humanity-icon-theme/Humanity/devices/48/multimedia-player-ipod-touch.svg

<?xml version="1.0" encoding="UTF-8" standalone="no"?>
<!-- Created with Inkscape (http://www.inkscape.org/) -->
<svg
   xmlns:svg="http://www.w3.org/2000/svg"
   xmlns="http://www.w3.org/2000/svg"
   xmlns:xlink="http://www.w3.org/1999/xlink"
   version="1.0"
   width="48"
   height="48"
   id="svg3428">
  <defs
     id="defs3430">
    <radialGradient
       cx="51.4375"
       cy="-12.203125"
       r="2.171875"
       fx="51.4375"
       fy="-12.203125"
       id="radialGradient3415"
       xlink:href="#linearGradient51765"
       gradientUnits="userSpaceOnUse"
       gradientTransform="matrix(-1.8417267,-5.8450938e-8,-1.2125708e-7,0.9200109,52.236437,52.586419)" />
    <linearGradient
       id="linearGradient51765">
      <stop
         id="stop51767"
         style="stop-color:#000000;stop-opacity:1"
         offset="0" />
      <stop
         id="stop51769"
         style="stop-color:#000000;stop-opacity:0"
         offset="1" />
    </linearGradient>
    <radialGradient
       cx="51.4375"
       cy="-12.203125"
       r="2.171875"
       fx="51.4375"
       fy="-12.203125"
       id="radialGradient3418"
       xlink:href="#linearGradient51765"
       gradientUnits="userSpaceOnUse"
       gradientTransform="matrix(1.8417267,-5.1455073e-7,6.2669991e-7,0.9200109,-115.2312,52.586443)" />
    <linearGradient
       id="linearGradient47870">
      <stop
         id="stop47872"
         style="stop-color:#000000;stop-opacity:0"
         offset="0" />
      <stop
         id="stop47878"
         style="stop-color:#000000;stop-opacity:1"
         offset="0.5" />
      <stop
         id="stop47874"
         style="stop-color:#000000;stop-opacity:0"
         offset="1" />
    </linearGradient>
    <linearGradient
       x1="32.084972"
       y1="-14.402173"
       x2="32.084972"
       y2="-5.5633383"
       id="linearGradient3421"
       xlink:href="#linearGradient47870"
       gradientUnits="userSpaceOnUse"
       gradientTransform="matrix(0.6655121,0,0,0.4518781,-54.615029,45.875214)" />
    <linearGradient
       id="linearGradient3176">
      <stop
         id="stop3178"
         style="stop-color:#aaaaaa;stop-opacity:1"
         offset="0" />
      <stop
         id="stop3180"
         style="stop-color:#6c6c6c;stop-opacity:1"
         offset="1" />
    </linearGradient>
    <linearGradient
       x1="24"
       y1="41.209427"
       x2="24"
       y2="44.02306"
       id="linearGradient3182"
       xlink:href="#linearGradient3176"
       gradientUnits="userSpaceOnUse"
       gradientTransform="translate(0,1)" />
    <linearGradient
       id="linearGradient3188">
      <stop
         id="stop3190"
         style="stop-color:#404040;stop-opacity:1"
         offset="0" />
      <stop
         id="stop3192"
         style="stop-color:#282828;stop-opacity:1"
         offset="1" />
    </linearGradient>
    <linearGradient
       x1="23.052357"
       y1="3"
       x2="23.052357"
       y2="42.073647"
       id="linearGradient3194"
       xlink:href="#linearGradient3188"
       gradientUnits="userSpaceOnUse"
       gradientTransform="translate(0,1)" />
    <linearGradient
       id="linearGradient3219">
      <stop
         id="stop3221"
         style="stop-color:#3c3c3c;stop-opacity:1"
         offset="0" />
      <stop
         id="stop3223"
         style="stop-color:#313131;stop-opacity:1"
         offset="1" />
    </linearGradient>
    <radialGradient
       cx="24.000002"
       cy="22.5"
       r="10"
       fx="24.000002"
       fy="22.5"
       id="radialGradient3225"
       xlink:href="#linearGradient3219"
       gradientUnits="userSpaceOnUse"
       gradientTransform="matrix(1,0,0,1.35,0,-7.8750007)" />
    <linearGradient
       id="linearGradient3208">
      <stop
         id="stop3210"
         style="stop-color:#ffffff;stop-opacity:1"
         offset="0" />
      <stop
         id="stop3212"
         style="stop-color:#ffffff;stop-opacity:0"
         offset="1" />
    </linearGradient>
    <linearGradient
       x1="24"
       y1="4"
       x2="24"
       y2="48.301048"
       id="linearGradient3268"
       xlink:href="#linearGradient3208"
       gradientUnits="userSpaceOnUse"
       gradientTransform="translate(0,1)" />
    <linearGradient
       id="linearGradient3246">
      <stop
         id="stop3248"
         style="stop-color:#e6e6e6;stop-opacity:1"
         offset="0" />
      <stop
         id="stop3250"
         style="stop-color:#e6e6e6;stop-opacity:0"
         offset="1" />
    </linearGradient>
    <linearGradient
       x1="14"
       y1="2"
       x2="32"
       y2="40"
       id="linearGradient3252"
       xlink:href="#linearGradient3246"
       gradientUnits="userSpaceOnUse"
       gradientTransform="translate(0,1)" />
    <linearGradient
       id="linearGradient3260">
      <stop
         id="stop3262"
         style="stop-color:#333333;stop-opacity:1"
         offset="0" />
      <stop
         id="stop3264"
         style="stop-color:#3e3e3e;stop-opacity:1"
         offset="1" />
    </linearGradient>
    <linearGradient
       x1="24"
       y1="37"
       x2="24"
       y2="39"
       id="linearGradient3266"
       xlink:href="#linearGradient3260"
       gradientUnits="userSpaceOnUse"
       gradientTransform="translate(0,1)" />
  </defs>
  <g
     id="layer1">
    <g
       transform="matrix(0.9333333,0,0,1.2500002,53.397557,-8.2015807)"
       id="g3423">
      <rect
         width="22"
         height="3.9940758"
         x="-42.497383"
         y="39.367184"
         id="rect46899"
         style="opacity:0.3;fill:url(#linearGradient3421);fill-opacity:1;fill-rule:evenodd;stroke:none" />
      <path
         d="M -20.497383,39.36126 L -20.497383,43.357557 C -18.292362,43.342467 -16.497383,42.459765 -16.497383,41.366469 C -16.497383,40.273174 -18.292361,39.376347 -20.497383,39.36126 z"
         id="path48849"
         style="opacity:0.3;fill:url(#radialGradient3418);fill-opacity:1;fill-rule:evenodd;stroke:none" />
      <path
         d="M -42.497383,39.36126 L -42.497383,43.357557 C -44.702404,43.342467 -46.497383,42.459765 -46.497383,41.366469 C -46.497383,40.273174 -44.702405,39.376347 -42.497383,39.36126 z"
         id="path52742"
         style="opacity:0.3;fill:url(#radialGradient3415);fill-opacity:1;fill-rule:evenodd;stroke:none" />
    </g>
    <rect
       width="25.000078"
       height="42.000076"
       rx="2"
       ry="2"
       x="11.499961"
       y="2.4999628"
       id="rect3166"
       style="opacity:1;fill:#e6e6e6;fill-opacity:1;fill-rule:nonzero;stroke:url(#linearGradient3182);stroke-width:0.9999218;stroke-linecap:butt;stroke-linejoin:round;marker:none;marker-start:none;marker-mid:none;marker-end:none;stroke-miterlimit:4;stroke-dasharray:none;stroke-dashoffset:0;stroke-opacity:1;visibility:visible;display:inline;overflow:visible;enable-background:accumulate" />
    <rect
       width="21.000078"
       height="38.000076"
       rx="1"
       ry="1"
       x="13.499962"
       y="4.4999609"
       id="rect3184"
       style="opacity:1;fill:url(#linearGradient3194);fill-opacity:1;fill-rule:nonzero;stroke:#1a1a1a;stroke-width:0.99992186;stroke-linecap:butt;stroke-linejoin:round;marker:none;marker-start:none;marker-mid:none;marker-end:none;stroke-miterlimit:4;stroke-dasharray:none;stroke-dashoffset:0;stroke-opacity:1;visibility:visible;display:inline;overflow:visible;enable-background:accumulate" />
    <rect
       width="19.000078"
       height="26.000078"
       x="14.499962"
       y="9.4999609"
       id="rect3216"
       style="opacity:1;fill:url(#radialGradient3225);fill-opacity:1;fill-rule:nonzero;stroke:#212121;stroke-width:0.99992174;stroke-linecap:butt;stroke-linejoin:round;marker:none;marker-start:none;marker-mid:none;marker-end:none;stroke-miterlimit:4;stroke-dasharray:none;stroke-dashoffset:0;stroke-opacity:1;visibility:visible;display:inline;overflow:visible;enable-background:accumulate" />
    <rect
       width="19.000078"
       height="36.00008"
       x="14.499962"
       y="5.4999609"
       id="rect3196"
       style="opacity:0.2;fill:none;fill-opacity:1;fill-rule:nonzero;stroke:url(#linearGradient3268);stroke-width:0.99992186;stroke-linecap:butt;stroke-linejoin:round;marker:none;marker-start:none;marker-mid:none;marker-end:none;stroke-miterlimit:4;stroke-dasharray:none;stroke-dashoffset:0;stroke-opacity:1;visibility:visible;display:inline;overflow:visible;enable-background:accumulate" />
    <path
       d="M 15,6 L 15,41 L 31,6 L 15,6 z"
       id="rect3238"
       style="opacity:0.15;fill:url(#linearGradient3252);fill-opacity:1;fill-rule:nonzero;stroke:none;stroke-width:0.99992186;stroke-linecap:butt;stroke-linejoin:round;marker:none;marker-start:none;marker-mid:none;marker-end:none;stroke-miterlimit:4;stroke-dasharray:none;stroke-dashoffset:0;stroke-opacity:1;visibility:visible;display:inline;overflow:visible;enable-background:accumulate" />
    <rect
       width="6"
       height="1"
       x="21"
       y="7"
       id="rect3233"
       style="opacity:1;fill:#333333;fill-opacity:1;fill-rule:nonzero;stroke:none;stroke-width:0.99992174;stroke-linecap:butt;stroke-linejoin:round;marker:none;marker-start:none;marker-mid:none;marker-end:none;stroke-miterlimit:4;stroke-dasharray:none;stroke-dashoffset:0;stroke-opacity:1;visibility:visible;display:inline;overflow:visible;enable-background:accumulate" />
    <rect
       width="1"
       height="1"
       x="11"
       y="10"
       id="rect3254"
       style="opacity:1;fill:#7f7f7f;fill-opacity:1;fill-rule:nonzero;stroke:none;stroke-width:0.99992174;stroke-linecap:butt;stroke-linejoin:round;marker:none;marker-start:none;marker-mid:none;marker-end:none;stroke-miterlimit:4;stroke-dasharray:none;stroke-dashoffset:0;stroke-opacity:1;visibility:visible;display:inline;overflow:visible;enable-background:accumulate" />
    <rect
       width="1"
       height="3"
       x="11"
       y="12"
       id="rect3256"
       style="opacity:1;fill:#7f7f7f;fill-opacity:1;fill-rule:nonzero;stroke:none;stroke-width:0.99992174;stroke-linecap:butt;stroke-linejoin:round;marker:none;marker-start:none;marker-mid:none;marker-end:none;stroke-miterlimit:4;stroke-dasharray:none;stroke-dashoffset:0;stroke-opacity:1;visibility:visible;display:inline;overflow:visible;enable-background:accumulate" />
    <rect
       width="2"
       height="2"
       x="23"
       y="38"
       id="rect3258"
       style="opacity:1;fill:url(#linearGradient3266);fill-opacity:1;fill-rule:nonzero;stroke:none;stroke-width:0.99992174;stroke-linecap:butt;stroke-linejoin:round;marker:none;marker-start:none;marker-mid:none;marker-end:none;stroke-miterlimit:4;stroke-dasharray:none;stroke-dashoffset:0;stroke-opacity:1;visibility:visible;display:inline;overflow:visible;enable-background:accumulate" />
  </g>
</svg>

<?xml version="1.0" encoding="UTF-8" standalone="no"?>
<!-- Created with Inkscape (http://www.inkscape.org/) -->
<svg id="svg3428" xmlns="http://www.w3.org/2000/svg" height="48" width="48" version="1.0" xmlns:xlink="http://www.w3.org/1999/xlink">
 <defs id="defs3430">
  <radialGradient id="radialGradient3415" xlink:href="#linearGradient51765" gradientUnits="userSpaceOnUse" cy="-12.203" cx="51.438" gradientTransform="matrix(-1.8417 -5.8451e-8 -1.2126e-7 .92001 52.236 52.586)" r="2.1719"/>
  <linearGradient id="linearGradient51765">
   <stop id="stop51767" offset="0"/>
   <stop id="stop51769" style="stop-opacity:0" offset="1"/>
  </linearGradient>
  <radialGradient id="radialGradient3418" xlink:href="#linearGradient51765" gradientUnits="userSpaceOnUse" cy="-12.203" cx="51.438" gradientTransform="matrix(1.8417 -5.1455e-7 6.267e-7 .92001 -115.23 52.586)" r="2.1719"/>
  <linearGradient id="linearGradient3421" y2="-5.5633" gradientUnits="userSpaceOnUse" x2="32.085" gradientTransform="matrix(.66551 0 0 .45188 -54.615 45.875)" y1="-14.402" x1="32.085">
   <stop id="stop47872" style="stop-opacity:0" offset="0"/>
   <stop id="stop47878" offset=".5"/>
   <stop id="stop47874" style="stop-opacity:0" offset="1"/>
  </linearGradient>
  <linearGradient id="linearGradient3182" y2="44.023" gradientUnits="userSpaceOnUse" x2="24" gradientTransform="translate(0,1)" y1="41.209" x1="24">
   <stop id="stop3178" style="stop-color:#aaa" offset="0"/>
   <stop id="stop3180" style="stop-color:#6c6c6c" offset="1"/>
  </linearGradient>
  <linearGradient id="linearGradient3194" y2="42.074" gradientUnits="userSpaceOnUse" x2="23.052" gradientTransform="translate(0,1)" y1="3" x1="23.052">
   <stop id="stop3190" style="stop-color:#404040" offset="0"/>
   <stop id="stop3192" style="stop-color:#282828" offset="1"/>
  </linearGradient>
  <radialGradient id="radialGradient3225" gradientUnits="userSpaceOnUse" cy="22.5" cx="24" gradientTransform="matrix(1 0 0 1.35 0 -7.875)" r="10">
   <stop id="stop3221" style="stop-color:#3c3c3c" offset="0"/>
   <stop id="stop3223" style="stop-color:#313131" offset="1"/>
  </radialGradient>
  <linearGradient id="linearGradient3268" y2="48.301" gradientUnits="userSpaceOnUse" x2="24" gradientTransform="translate(0,1)" y1="4" x1="24">
   <stop id="stop3210" style="stop-color:#fff" offset="0"/>
   <stop id="stop3212" style="stop-color:#fff;stop-opacity:0" offset="1"/>
  </linearGradient>
  <linearGradient id="linearGradient3252" y2="40" gradientUnits="userSpaceOnUse" x2="32" gradientTransform="translate(0,1)" y1="2" x1="14">
   <stop id="stop3248" style="stop-color:#e6e6e6" offset="0"/>
   <stop id="stop3250" style="stop-color:#e6e6e6;stop-opacity:0" offset="1"/>
  </linearGradient>
  <linearGradient id="linearGradient3266" y2="39" gradientUnits="userSpaceOnUse" x2="24" gradientTransform="translate(0,1)" y1="37" x1="24">
   <stop id="stop3262" style="stop-color:#333" offset="0"/>
   <stop id="stop3264" style="stop-color:#3e3e3e" offset="1"/>
  </linearGradient>
 </defs>
 <g id="layer1">
  <g id="g3423" transform="matrix(.93333 0 0 1.25 53.398 -8.2016)">
   <rect id="rect46899" style="opacity:.3;fill:url(#linearGradient3421);fill-rule:evenodd" height="3.9941" width="22" y="39.367" x="-42.497"/>
   <path id="path48849" style="opacity:.3;fill:url(#radialGradient3418);fill-rule:evenodd" d="m-20.497 39.361v3.997c2.205-0.016 4-0.898 4-1.992 0-1.093-1.795-1.99-4-2.005z"/>
   <path id="path52742" style="opacity:.3;fill:url(#radialGradient3415);fill-rule:evenodd" d="m-42.497 39.361v3.997c-2.205-0.016-4-0.898-4-1.992 0-1.093 1.795-1.99 4-2.005z"/>
  </g>
  <rect id="rect3166" style="stroke-linejoin:round;stroke-width:.99992;stroke:url(#linearGradient3182);fill:#e6e6e6" rx="2" ry="2" height="42" width="25" y="2.5" x="11.5"/>
  <rect id="rect3184" style="stroke-linejoin:round;stroke-width:.99992;stroke:#1a1a1a;fill:url(#linearGradient3194)" rx="1" ry="1" height="38" width="21" y="4.5" x="13.5"/>
  <rect id="rect3216" style="stroke-linejoin:round;stroke-width:.99992;stroke:#212121;fill:url(#radialGradient3225)" height="26" width="19" y="9.5" x="14.5"/>
  <rect id="rect3196" style="opacity:.2;stroke-linejoin:round;stroke-width:.99992;stroke:url(#linearGradient3268);fill:none" height="36" width="19" y="5.5" x="14.5"/>
  <path id="rect3238" style="opacity:.15;fill:url(#linearGradient3252)" d="m15 6v35l16-35h-16z"/>
  <rect id="rect3233" style="fill:#333" height="1" width="6" y="7" x="21"/>
  <rect id="rect3254" style="fill:#7f7f7f" height="1" width="1" y="10" x="11"/>
  <rect id="rect3256" style="fill:#7f7f7f" height="3" width="1" y="12" x="11"/>
  <rect id="rect3258" style="fill:url(#linearGradient3266)" height="2" width="2" y="38" x="23"/>
 </g>
</svg>
